assets/images/icons/src/viacoin.svg

<?xml version="1.0" encoding="utf-8"?>
<!-- Generated by IcoMoon.io -->
<!DOCTYPE svg PUBLIC "-//W3C//DTD SVG 1.1//EN" "http://www.w3.org/Graphics/SVG/1.1/DTD/svg11.dtd">
<svg version="1.1" xmlns="http://www.w3.org/2000/svg" xmlns:xlink="http://www.w3.org/1999/xlink" width="12" height="14" viewBox="0 0 12 14">
<path fill="#444444" d="M12 0l-1.5 3.5h1.5v1.5h-2.141l-0.43 1h2.57v1.5h-3.211l-2.789 6.5-2.789-6.5h-3.211v-1.5h2.57l-0.43-1h-2.141v-1.5h1.5l-1.5-3.5h2l2.523 6h2.953l2.523-6h2zM6 9.5l0.844-2h-1.688z"></path>
</svg>

<svg xmlns="http://www.w3.org/2000/svg" width="12" height="14" viewBox="0 0 12 14"><path fill="#444" d="M12 0l-1.5 3.5H12V5H9.859l-.43 1h2.57v1.5H8.788L5.999 14 3.21 7.5H-.001V6h2.57l-.43-1H-.002V3.5h1.5L-.002 0h2l2.523 6h2.953l2.523-6h2zM6 9.5l.844-2H5.156z"/></svg>
